!!!OTL: 1940. Zum Dienst des Kindleins.
!!!ODT: 1604
!!!ARE: Europa, Mitteleuropa, Deutschland
!!!SCT: E1940
!!!TXL: @@DE
!!!YEM: Copyright 1995, estate of Helmut Schaffrath.
**kern	**text
*ICvox	*
*M3/4	*
*met(3)	*
*k[f#]	*
*G:	*
!LO:TX:a:t=Mel. ſeit 1604 in allen kathol. Geſangbüchern bis ʒur Neuʒeit.	!
{4g	Laßt
=1	=1
2g	uns
4a	das
=2	=2
2b	Kind-
4cc	-lein
=3	=3
(4.a	wie-
8g)	.
4a	.
=4	=4
2b}	-gen,
{4g	das
=5	=5
2g	Herʒ
4a	ʒum
=6	=6
2b	Kripp-
4cc	-lein
=7	=7
(4.a	bie-
8g)	.
4a	.
=8	=8
2b}	-gen,
{4b	laßt
=9	=9
2dd	uns
4cc	im
=10	=10
2b/	Geiſt
4a	er-
=11	=11
(4.b/	-freu-
8a	.
4b/)	.
=12	=12
2a}	-en,
{4b	das
=13	=13
2dd	Kind-
4cc	-lein
=14	=14
2b/	be-
4a	-ne-
=15	=15
(4.b/	-dei-
8a	.
4b/)	.
=16	=16
2a}	-en.
{4a	O
=17	=17
4.d	Je-
8e	-ſu-
4f#	-lein
=18	=18
2g	ſüß,
4b	o
=19	=19
4.a	Je-
8g	-ſu-
4a	-lein
=20	=20
2g;}	ſüß!
==	==
!!!AGN: geistlich, Fest - Lied, Weihnachten
!!!ONB: ESAC (Essen Associative Code) Database: ERK3
!!!AMT: simple triple
!!!AIN: vox
!!!EED: Helmut Schaffrath
!!!EEV: 1.0
!!!GTL: Geistliche Lieder. 1. Christliche Festlieder: a) Weihnachtskreis (Advent, Weihnachten, Neujahr und Dreikoenigstag).
!!!URL-scan: https://rosdok.uni-rostock.de/mcrviewer/recordIdentifier/rosdok_ppn745177999/iview2/phys_0651.iview2?x=188.9681574111819&y=765.9885418335907&scale=0.7014306698522895&rotation=0&layout=singlePageLayout
!!!ENC: Anna Maria Matuszewska
!!!EEV: 2025/09/01
*-	*-
